X: 27851
T: Mother's Delight
R: reel
M: 4/4
K: Gmajor
c|:Bdgd BGGB|Ac=fc A=FFc|Bdgd BGGB|
A/B/A DF AGGc|dgd BGGB|Ac=fc A=FFA|
_B/c/B =FA Bg=fd|1 cAFG AGGc:|2 cAFG AGGA||
|:_B2 BA B2 GA|_BABd cBAB|Gdga gdga|baaf defd|
g/a/gfa gfde|=fdc_B A=FFA|Gg- g2 dgbg|fdcA BGGA:|

